apps/trade/public/tokens/weth.svg

<svg width="24" height="24" viewBox="0 0 24 24" fill="none" xmlns="http://www.w3.org/2000/svg">
    <g clip-path="url(#weth_clip0_10046_62109)">
        <path
            d="M6.72841 23.8032C12.7609 23.8032 12.7609 23.7134 13.7837 23.4098C15.1204 23.013 10.0097 19.4753 6.72841 19.4753C3.44712 19.4753 0.787109 20.4442 0.787109 21.6393C0.787109 22.8344 3.44725 23.8032 6.72841 23.8032Z"
            fill="black" />
        <path
            d="M20.4259 5.40167L20.7034 5.70068L20.4608 6.02864C12.5934 16.666 8.06125 21.4823 6.13831 20.8363C4.96704 20.4429 3.79243 19.2596 2.61779 17.5413C2.20491 16.9374 1.8172 16.3014 1.46458 15.6685C1.22976 15.247 1.03101 14.8627 0.927818 14.6462C0.796181 14.37 0.740604 14.1999 0.696511 13.9764C0.693821 13.9628 0.693821 13.9628 0.691265 13.9496C0.672861 13.8547 0.666494 13.8248 0.652738 13.7729C0.416003 12.8807 0.294922 11.9563 0.294922 11.0164C0.294922 5.09514 5.09502 0.295044 11.0162 0.295044C12.8713 0.295044 14.6589 0.767158 16.2432 1.6534L16.2841 1.67899C17.5812 2.58205 18.9609 3.82293 20.4259 5.40167ZM15.742 2.50011C14.3087 1.70299 12.6938 1.27865 11.0162 1.27865C5.63825 1.27865 1.27853 5.63837 1.27853 11.0164C1.27853 11.871 1.3885 12.7106 1.60345 13.5207C1.6247 13.6008 1.63432 13.646 1.65686 13.7622C1.65923 13.7744 1.65923 13.7744 1.66151 13.786C1.68996 13.9302 1.71999 14.0221 1.81572 14.223C1.90986 14.4205 2.09904 14.7863 2.32381 15.1898C2.66273 15.798 3.03517 16.409 3.42979 16.9862C4.49106 18.5386 5.54357 19.5989 6.45153 19.9039C7.66251 20.3107 12.2214 15.4849 19.426 5.77321C18.118 4.39258 16.8892 3.30153 15.742 2.50011Z"
            fill="black" />
        <path
            d="M15.7427 2.50014C14.3095 1.70302 12.6946 1.27869 11.017 1.27869C5.63902 1.27869 1.2793 5.63841 1.2793 11.0164C1.2793 11.871 1.38927 12.7106 1.60422 13.5207C1.62547 13.6008 1.63508 13.6461 1.65763 13.7623C1.66 13.7745 1.66 13.7745 1.66228 13.786C1.69073 13.9302 1.72076 14.0222 1.81648 14.223C1.91062 14.4205 2.09981 14.7864 2.32458 15.1898C2.6635 15.7981 3.03594 16.409 3.43056 16.9862C4.49183 18.5387 5.54433 19.599 6.4523 19.904C7.66328 20.3108 12.2221 15.4849 19.4267 5.77325C18.1187 4.39262 16.89 3.30157 15.7427 2.50014Z"
            fill="#EC1C79" />
        <path
            d="M12.983 23.7048C7.06181 23.7048 2.26172 18.9047 2.26172 12.9835C2.26172 7.0623 7.06181 2.26221 12.983 2.26221C18.9042 2.26221 23.7043 7.0623 23.7043 12.9835C23.7043 18.9047 18.9042 23.7048 12.983 23.7048ZM12.983 22.7212C18.361 22.7212 22.7207 18.3615 22.7207 12.9835C22.7207 7.60553 18.361 3.24581 12.983 3.24581C7.60504 3.24581 3.24533 7.60553 3.24533 12.9835C3.24533 18.3615 7.60504 22.7212 12.983 22.7212Z"
            fill="black" />
        <path
            d="M12.9838 22.7213C18.3618 22.7213 22.7215 18.3615 22.7215 12.9836C22.7215 7.60557 18.3618 3.24585 12.9838 3.24585C7.60581 3.24585 3.24609 7.60557 3.24609 12.9836C3.24609 18.3615 7.60581 22.7213 12.9838 22.7213Z"
            fill="white" />
        <path fill-rule="evenodd" clip-rule="evenodd"
            d="M5.69907 14.9783L4.41016 11.095H5.53934L6.21134 13.3258L6.95494 11.084H7.87481L8.61842 13.3258L9.29042 11.095H10.3976L9.10865 14.9783H8.17776L7.40111 12.7585L6.62996 14.9783H5.69907ZM10.8217 14.9507V11.095H13.9228V12.0039H11.8793V12.5877H13.73V13.4305H11.8793V14.0419H13.9504V14.9507H10.8217ZM15.4376 14.9507V12.0314H14.2808V11.095H17.6629V12.0314H16.5062V14.9507H15.4376ZM18.1311 14.9507V11.095H19.1997V12.5381H20.5712V11.095H21.6398V14.9507H20.5712V13.4856H19.1997V14.9507H18.1311Z"
            fill="black" />
        <path
            d="M0.933513 9.93521C0.661419 9.79916 0.551132 9.4683 0.687178 9.19621C0.823225 8.92411 1.15409 8.81383 1.42618 8.94987L2.99995 9.73676C3.27204 9.87281 3.38233 10.2037 3.24628 10.4758C3.11024 10.7479 2.77938 10.8581 2.50728 10.7221L0.933513 9.93521Z"
            fill="black" />
        <path
            d="M0.753732 12.5447C0.477519 12.4173 0.356944 12.09 0.484419 11.8138C0.611895 11.5376 0.939148 11.417 1.21536 11.5445L2.78913 12.2708C3.06534 12.3983 3.18592 12.7255 3.05844 13.0017C2.93097 13.2779 2.60371 13.3985 2.3275 13.271L0.753732 12.5447Z"
            fill="black" />
    </g>
    <defs>
        <clipPath id="weth_clip0_10046_62109">
            <rect width="24" height="24" fill="white" />
        </clipPath>
    </defs>
</svg>

<svg width="24" height="24" fill="none" xmlns="http://www.w3.org/2000/svg">
    <g clip-path="url(#a)">
        <path d="M6.728 23.803c6.033 0 6.033-.09 7.056-.393 1.336-.397-3.774-3.935-7.056-3.935-3.28 0-5.94.97-5.94 2.164 0 1.195 2.66 2.164 5.94 2.164Z" fill="#000"/>
        <path d="m20.426 5.402.277.299-.242.328C12.593 16.666 8.06 21.482 6.138 20.836c-1.171-.393-2.346-1.576-3.52-3.295a24.253 24.253 0 0 1-1.69-2.895 2.548 2.548 0 0 1-.231-.67L.69 13.95a2.286 2.286 0 0 0-.038-.177 10.736 10.736 0 0 1-.358-2.757c0-5.92 4.8-10.721 10.721-10.721 1.855 0 3.643.472 5.227 1.358l.041.026c1.297.903 2.677 2.144 4.142 3.723ZM15.742 2.5a9.691 9.691 0 0 0-4.726-1.221c-5.378 0-9.737 4.36-9.737 9.737 0 .855.11 1.695.324 2.505.022.08.031.125.054.241l.005.024c.028.144.058.236.154.437a23.305 23.305 0 0 0 1.614 2.763C4.49 18.54 5.544 19.6 6.452 19.904c1.21.407 5.77-4.42 12.974-14.13-1.308-1.381-2.537-2.472-3.684-3.274Z" fill="#000"/>
        <path d="M15.743 2.5a9.69 9.69 0 0 0-4.726-1.221c-5.378 0-9.738 4.36-9.738 9.737 0 .855.11 1.695.325 2.505.021.08.031.125.054.241l.004.024c.029.144.059.236.154.437a23.286 23.286 0 0 0 1.614 2.763c1.062 1.553 2.114 2.613 3.022 2.918 1.211.407 5.77-4.42 12.975-14.13-1.308-1.381-2.537-2.472-3.684-3.274Z" fill="#EC1C79"/>
        <path d="M12.983 23.705c-5.921 0-10.721-4.8-10.721-10.721 0-5.922 4.8-10.722 10.721-10.722s10.721 4.8 10.721 10.721c0 5.922-4.8 10.722-10.721 10.722Zm0-.984c5.378 0 9.738-4.36 9.738-9.738 0-5.377-4.36-9.737-9.738-9.737-5.378 0-9.738 4.36-9.738 9.737 0 5.378 4.36 9.738 9.738 9.738Z" fill="#000"/>
        <path d="M12.984 22.721c5.378 0 9.737-4.36 9.737-9.737 0-5.378-4.36-9.738-9.737-9.738-5.378 0-9.738 4.36-9.738 9.738 0 5.377 4.36 9.737 9.738 9.737Z" fill="#fff"/>
        <path fill-rule="evenodd" clip-rule="evenodd" d="m5.7 14.978-1.29-3.883h1.13l.671 2.23.744-2.241h.92l.743 2.242.672-2.231h1.108l-1.29 3.883h-.93l-.777-2.22-.771 2.22H5.7Zm5.122-.027v-3.856h3.1v.909H11.88v.584h1.851v.843h-1.85v.61h2.07v.91h-3.128Zm4.616 0v-2.92H14.28v-.936h3.382v.936h-1.157v2.92h-1.068Zm2.693 0v-3.856H19.2v1.443h1.371v-1.443h1.069v3.856H20.57v-1.465H19.2v1.465H18.13Z" fill="#000"/>
        <path d="M.934 9.935a.55.55 0 0 1 .492-.985L3 9.737a.55.55 0 0 1-.493.985L.934 9.935ZM.754 12.545a.55.55 0 1 1 .461-1l1.574.726a.55.55 0 1 1-.462 1l-1.573-.726Z" fill="#000"/>
    </g>
    <defs>
        <clipPath id="a">
            <path fill="#fff" d="M0 0h24v24H0z"/>
        </clipPath>
    </defs>
</svg>
